app/assets/images/trail-complete-check.svg

<?xml version="1.0" encoding="UTF-8" standalone="no"?>
<svg width="32px" height="32px" viewBox="0 0 32 32" version="1.1" xmlns="http://www.w3.org/2000/svg" xmlns:xlink="http://www.w3.org/1999/xlink">
    <defs></defs>
    <g id="Page-1" stroke="none" stroke-width="1" fill="none" fill-rule="evenodd">
        <g id="trail-complete-check">
            <path d="M32,16 C32,7.163444 24.836556,2.48689958e-14 16,2.48689958e-14 C7.163444,2.48689958e-14 3.55271368e-15,7.163444 3.55271368e-15,16 C3.55271368e-15,24.836556 7.163444,32 16,32 C24.836556,32 32,24.836556 32,16 Z" id="Oval-20" fill="#57C75C"></path>
            <path d="M23.0492187,10.9535156 L14.337066,19.6656684 L10.4769965,15.805599 C10.205816,15.5344184 9.76588542,15.5344184 9.49505208,15.805599 C9.22387153,16.0767795 9.22387153,16.5163629 9.49505208,16.7875434 L13.8460937,21.1389323 C13.9763021,21.2691406 14.1530382,21.3420573 14.337066,21.3420573 C14.5210937,21.3420573 14.6978299,21.2691406 14.8280382,21.1389323 L24.0315104,11.9354601 C24.302691,11.6642795 24.302691,11.2246962 24.0315104,10.9535156 C23.7603299,10.6823351 23.3203993,10.6819879 23.0492187,10.9535156 L23.0492187,10.9535156 L23.0492187,10.9535156 Z" id="Shape" fill="#FFFFFF"></path>
        </g>
    </g>
</svg>

<svg width="32" height="32" viewBox="0 0 32 32" xmlns="http://www.w3.org/2000/svg">
    <g fill="none" fill-rule="evenodd">
        <g>
            <path d="M32 16c0-8.837-7.163-16-16-16S0 7.163 0 16s7.163 16 16 16 16-7.163 16-16z" fill="#57C75C"/>
            <path d="M23.05 10.954l-8.713 8.712-3.86-3.86c-.27-.272-.71-.272-.982 0-.27.27-.27.71 0 .982l4.35 4.35c.13.13.308.204.492.204s.36-.073.49-.203l9.205-9.205c.27-.27.27-.71 0-.98-.272-.273-.712-.273-.983 0z" fill="#fff"/>
        </g>
    </g>
</svg>
